X:1
T:Devil Chased Me Round the Stump
L:1/8
M:C|
S:James Bryan
Z:AK/Fiddler's Companion
K:G
(3GFE|D2 G2 BABG|D2 G2 B3G|D2 G2 BAGB|A2 G4 (3GFE|
D2 G2 BABG|A2 B2 e3d|e2 dA BAGB|A2 G2 G2:|
|:z(d|e2) d2 BABd|e2 f2 g3 f|e2 dA BAGB|A2 G2 G4|
e2 (3ded BABd|e2 f2 g3f|efed BAGB|A2 G4:|

